X:786
T:Farewell To Skye #2
C:Joe Buchanan's Scottish Tome - Page 536.2
I:536 2
Z:Carl Allison
R:Slow Air
L:1/4
M:3/4
K:A
E2  E | (F2 E) | E3 | (E2 E) | (E2 c) | (e2 d) | c3- | c3 |
(c2 B) | (A2 C) | E3 | A3 | (B2 c) | (B2 A) | A3- | A3 |
E2 E | (F2 E) | E3 | E3 | (E2 c) | (e2 d) | c3- | (c2 c) |
(c2 B) | (A2 C) | E3 | A3 | (B2 c) | (B2 A) | A3- | A3 :|
